X: 28337
T: Mug Of Brown Ale, The
R: jig
M: 6/8
K: Adorian
|:ADD BAA|cBc dcA|GED C3|EDE GEG|
ADD BAA|cBc dcA|GEG cGE|EDC D3:|
|:ABc d3|ded dcA|GEG c3|ced cAG|
ABc d3|ded dcA|GEG cGE|EDC D3:|

